img/group_icon.svg

<svg height="159" viewBox="0 0 163 159" width="163" xmlns="http://www.w3.org/2000/svg"><path d="m80.667 36.311c9.826 0 17.794-7.965 17.794-17.796 0-9.825-7.968-17.793-17.794-17.793-9.827 0-17.795 7.968-17.795 17.793 0 9.83 7.968 17.796 17.795 17.796zm12.458 8.689h-24.922c-6.115 0-11.203 4.387-11.203 10.673v39.271c0 4.412 2.509 8.982 6.245 11.32-.017.303-.245.607-.245.918v39.271c0 6.285 3.404 12.547 8.101 12.547h19.131c4.701 0 7.769-6.262 7.769-12.549v-39.27c0-.214-.226-.418-.231-.627 3.812-2.23 6.231-7.007 6.231-11.613v-39.27c-.001-6.284-4.755-10.671-10.876-10.671z"/><circle cx="140.986" cy="16.234" r="15.513"/><path d="m151.852 40h-21.728c-5.334 0-10.124 3.15-10.124 8.628v34.235c0 3.576 2.16 7.098 5.189 9.117-.07.498-.189 1.013-.189 1.554v34.235c0 5.479 3.552 11.231 7.646 11.231h16.682c4.096 0 7.673-5.752 7.673-11.231v-34.235c0-.476-.106-.929-.157-1.371 3.049-1.985 5.157-5.614 5.157-9.3v-34.235c-.001-5.478-4.815-8.628-10.149-8.628z"/><circle cx="21.494" cy="16.234" r="15.513"/><path d="m32.358 40h-21.728c-5.334 0-10.63 3.15-10.63 8.628v34.235c0 3.561 2.168 7.063 5.196 9.089-.076.506-.196 1.03-.196 1.581v34.234c0 5.48 4.06 11.232 8.155 11.232h16.682c4.093.001 7.163-5.751 7.163-11.231v-34.234c0-.463-.104-.907-.15-1.338 3.051-1.979 5.15-5.627 5.15-9.334v-34.234c0-5.478-4.309-8.628-9.642-8.628z"/></svg>

<svg xmlns="http://www.w3.org/2000/svg" width="163" height="159" viewBox="0 0 163 159">
  <path d="M80.667 36.311C90.493 36.311 98.461 28.346 98.461 18.515 98.461 8.69 90.493.722 80.667.722 70.84.722 62.872 8.69 62.872 18.515 62.872 28.345 70.84 36.311 80.667 36.311zM93.125 45L68.203 45C62.088 45 57 49.387 57 55.673L57 94.944C57 99.356 59.509 103.926 63.245 106.264 63.228 106.567 63 106.871 63 107.182L63 146.453C63 152.738 66.404 159 71.101 159L90.232 159C94.933 159 98.001 152.738 98.001 146.451L98.001 107.181C98.001 106.967 97.775 106.763 97.77 106.554 101.582 104.324 104.001 99.547 104.001 94.941L104.001 55.671C104 49.387 99.246 45 93.125 45L93.125 45z"/>
  <circle cx="140.986" cy="16.234" r="15.513"/>
  <path d="M151.852,40 L130.124,40 C124.79,40 120,43.15 120,48.628 L120,82.863 C120,86.439 122.16,89.961 125.189,91.98 C125.119,92.478 125,92.993 125,93.534 L125,127.769 C125,133.248 128.552,139 132.646,139 L149.328,139 C153.424,139 157.001,133.248 157.001,127.769 L157.001,93.534 C157.001,93.058 156.895,92.605 156.844,92.163 C159.893,90.178 162.001,86.549 162.001,82.863 L162.001,48.628 C162,43.15 157.186,40 151.852,40 L151.852,40 Z"/>
  <circle cx="21.494" cy="16.234" r="15.513"/>
  <path d="M32.358,40 L10.63,40 C5.296,40 -7.10542736e-15,43.15 -7.10542736e-15,48.628 L-7.10542736e-15,82.863 C-7.10542736e-15,86.424 2.168,89.926 5.196,91.952 C5.12,92.458 5,92.982 5,93.533 L5,127.767 C5,133.247 9.06,138.999 13.155,138.999 L29.837,138.999 C33.93,139 37,133.248 37,127.768 L37,93.534 C37,93.071 36.896,92.627 36.85,92.196 C39.901,90.217 42,86.569 42,82.862 L42,48.628 C42,43.15 37.691,40 32.358,40 L32.358,40 Z"/>
</svg>
